icons/svgs/exclamation-circle-solid.svg

<svg width="24" height="24" viewBox="0 0 24 24" fill="none" xmlns="http://www.w3.org/2000/svg">
<path d="M12 22C8.40625 22 5.125 20.125 3.32812 17C1.53125 13.9141 1.53125 10.125 3.32812 7C5.125 3.91406 8.40625 2 12 2C15.5547 2 18.8359 3.91406 20.6328 7C22.4297 10.125 22.4297 13.9141 20.6328 17C18.8359 20.125 15.5547 22 12 22ZM12 7C11.4531 7 11.0625 7.42969 11.0625 7.9375V12.3125C11.0625 12.8594 11.4531 13.25 12 13.25C12.5078 13.25 12.9375 12.8594 12.9375 12.3125V7.9375C12.9375 7.42969 12.5078 7 12 7ZM10.75 15.75C10.75 16.4531 11.2969 17 12 17C12.6641 17 13.25 16.4531 13.25 15.75C13.25 15.0859 12.6641 14.5 12 14.5C11.2969 14.5 10.75 15.0859 10.75 15.75Z" fill="black"/>
</svg>

<svg xmlns="http://www.w3.org/2000/svg" width="24" height="24" fill="currentColor" class="icon-exclamation-circle-solid" viewBox="0 0 24 24">
  <mask id="a" width="21" height="20" x="1" y="2" maskUnits="userSpaceOnUse" style="mask-type:alpha">
    <path d="M12 22c-3.594 0-6.875-1.875-8.672-5-1.797-3.086-1.797-6.875 0-10C5.125 3.914 8.406 2 12 2c3.555 0 6.836 1.914 8.633 5 1.797 3.125 1.797 6.914 0 10A9.93 9.93 0 0 1 12 22m0-15a.925.925 0 0 0-.937.938v4.375c0 .546.39.937.937.937.508 0 .938-.39.938-.937V7.937A.95.95 0 0 0 12 7m-1.25 8.75c0 .703.547 1.25 1.25 1.25.664 0 1.25-.547 1.25-1.25 0-.664-.586-1.25-1.25-1.25-.703 0-1.25.586-1.25 1.25"/>
  </mask>
  <g mask="url(#a)">
    <path d="M0 0h24v24H0z"/>
  </g>
</svg>
